X: 262
T: Ben Seni Sevdiğimi
C: Hasan Tunç
O: Turkey
F: http://compmusic.upf.edu/node/140
N: hicaz-humayun--turku--turkaksagi--beni_seni--trabzon
N: makam= hicaz-humayun
N: form= turku
N: usul= turkaksagi = 5/8
M: 5/8
L: 1/16
K: C _7/8B ^c  
Q: 1/4=192
%%MIDI tuningsystem comma53
c2d2 e2e4 | e2 e2e6  | fefg e4 d2 | e2 e2e6  | \
w:  Ben  se ni  sev  |  di ği mi    |  Dün *  ya *  la ra   |  bil dir dim    | 
c2d2 e2e4 | e2 e2e6  | 
w:  Ben  se ni  sev  |  di ği mi    | 
fefg e4 d2 | e2 e2e6  | g2g2 f4 e2 | f2 fedc BAB2  | 
w:  Dün *  ya *  la ra   |  bil dir dim    |  İn dir din   |  kaş la *  rı *  nı    | 
d2dc B6 | d2 dcB4A2  | A2A2 ABcd ef | g2 g2f4e2  | 
w:  Ba ba *  nı   |  ba ba *  nı  mı   |  öl dür düm   SAZ  |  In dir din   | 
f2fe dcBA B2 | d2 {e}dcB6  | d2{e}dc B4 A2 | \
w:  kaş *  *  la *  rı *  nı    |  Ba *  ba *  nı   |  ba *  ba *  nı  mı   | 
A2 A2A6  | c2d2 e2e4 | 
w:  öl dür düm    |  Ben  se ni  sev  | 
e2 e2e6  | fefg e4 d2 | e2 e2e6  | c2d2 e2e4 | \
w:  di ği mi    |  Dün *  ya *  la ra   |  bil dir dim    |  Ben  se ni  sev  | 
e2 e2e6  | fefg e4 d2 | 
w:  di ği mi    |  Dün *  ya *  la ra   | 
e2 e2e6  | g2g2 f4 e2 | f2 fedc BAB2  | \
w:  bil dir dim    |  İn dir din   |  kaş la *  rı *  nı    | 
d2dc B6 | d2 dcB4A2  | 
w:  Ba ba *  nı   |  ba ba *  nı  mı   | 
A2A2 ABcd ef | g2 g2f4e2  | f2fe dcBA B2 | \
w:  öl dür düm   SAZ  |  In dir din   |  kaş *  *  la *  rı *  nı    | 
d2 {e}dcB6  | 
w:  Ba *  ba *  nı   | 
d2{e}dc B4 A2 | A2 A2A6  | |


